public/assets/kaartFront1.svg

<svg width="231" height="347" viewBox="0 0 231 347" fill="none" xmlns="http://www.w3.org/2000/svg">
<path d="M230.952 346.95L0 336.642L1.56578 0L225.341 0.521925L230.952 346.95Z" fill="#FEF1F0"/>
<path d="M100.731 75.8107L81.4199 105.038L61.8477 75.6802L81.1589 46.1914L100.731 75.8107Z" fill="#F37880"/>
<path d="M100.731 142.096L81.4199 171.324L61.8477 141.966L81.1589 112.607L100.731 142.096Z" fill="#F37880"/>
<path d="M100.731 208.379L81.4199 237.607L61.8477 208.249L81.1589 178.891L100.731 208.379Z" fill="#F37880"/>
<path d="M100.731 274.793L81.4199 304.021L61.8477 274.663L81.1589 245.174L100.731 274.793Z" fill="#F37880"/>
<path d="M170.799 72.4185L151.357 101.646L131.785 72.288L151.227 42.9297L170.799 72.4185Z" fill="#F37880"/>
<path d="M170.799 138.704L151.357 167.931L131.785 138.573L151.227 109.215L170.799 138.704Z" fill="#F37880"/>
<path d="M134.782 108.04L115.34 137.267L95.8984 107.909L115.21 78.5508L134.782 108.04Z" fill="#F37880"/>
<path d="M170.799 205.117L151.357 234.215L131.785 204.987L151.227 175.498L170.799 205.117Z" fill="#F37880"/>
<path d="M137.912 237.086L118.471 266.183L98.8984 236.956L118.34 207.467L137.912 237.086Z" fill="#F37880"/>
<path d="M170.799 271.403L151.357 300.631L131.785 271.272L151.227 241.914L170.799 271.403Z" fill="#F37880"/>
<path d="M21.1422 18.1401L21.0117 24.0118L27.2748 22.446L26.6224 40.061L33.5379 39.9305L32.755 15.2695L21.1422 18.1401Z" fill="#F37880"/>
<path d="M51.0199 14.8763C39.0156 15.2677 39.7985 26.8805 40.0595 29.8816C40.3204 32.8827 41.7557 40.5811 50.237 40.5811C58.4573 40.4506 61.3279 34.318 61.4584 26.6196C62.1108 14.3543 51.0199 14.8763 51.0199 14.8763ZM49.0627 34.5789C48.0188 34.318 45.1482 34.5789 45.1482 27.7939C45.1482 21.0089 50.3675 21.1394 50.3675 21.1394C50.3675 21.1394 56.3696 19.5736 56.7611 27.9244C57.1525 36.2752 50.1065 34.7094 49.0627 34.5789Z" fill="#F37880"/>
<path d="M211.379 328.687L211.639 322.946L205.246 324.381L205.898 306.896H199.113L199.766 331.557L211.379 328.687Z" fill="#F37880"/>
<path d="M181.496 331.949C193.5 331.558 192.717 319.945 192.456 316.944C192.195 313.943 190.76 306.244 182.279 306.244C174.058 306.375 171.188 312.507 171.057 320.206C170.535 332.471 181.496 331.949 181.496 331.949ZM183.583 312.377C184.627 312.638 187.498 312.377 187.498 319.162C187.498 325.947 182.279 325.816 182.279 325.816C182.279 325.816 176.276 327.382 175.885 319.031C175.363 310.681 182.409 312.116 183.583 312.377Z" fill="#F37880"/>
<path d="M200.545 286.667L191.934 299.715L183.191 286.667L191.803 273.619L200.545 286.667Z" fill="#F37880"/>
<path d="M47.3579 57.1536L38.7462 70.2017L30.0039 57.1536L38.6157 44.1055L47.3579 57.1536Z" fill="#F37880"/>
</svg>

<svg width="231" height="347" fill="none" xmlns="http://www.w3.org/2000/svg"><path d="M230.952 346.95L0 336.642 1.566 0 225.34.522l5.611 346.428z" fill="#FEF1F0"/><path d="M100.731 75.81L81.42 105.039 61.848 75.68l19.31-29.489 19.573 29.62zM100.731 142.096L81.42 171.324l-19.572-29.358 19.31-29.359 19.573 29.489zM100.731 208.379L81.42 237.607l-19.572-29.358 19.31-29.358 19.573 29.488zM100.731 274.793L81.42 304.021l-19.572-29.358 19.31-29.489 19.573 29.619zM170.799 72.418l-19.442 29.228-19.572-29.358 19.442-29.358 19.572 29.488zM170.799 138.704l-19.442 29.227-19.572-29.358 19.442-29.358 19.572 29.489zM134.782 108.04l-19.442 29.227-19.442-29.358 19.312-29.358 19.572 29.489zM170.799 205.117l-19.442 29.098-19.572-29.228 19.442-29.489 19.572 29.619zM137.912 237.086l-19.441 29.097-19.573-29.227 19.442-29.489 19.572 29.619zM170.799 271.403l-19.442 29.228-19.572-29.359 19.442-29.358 19.572 29.489zM21.142 18.14l-.13 5.872 6.263-1.566-.653 17.615 6.916-.13-.783-24.661-11.613 2.87zM51.02 14.876c-12.004.392-11.222 12.005-10.96 15.006.26 3 1.696 10.7 10.177 10.7 8.22-.131 11.09-6.264 11.221-13.962.653-12.266-10.438-11.744-10.438-11.744zM49.063 34.58c-1.044-.261-3.915 0-3.915-6.785s5.22-6.655 5.22-6.655 6.002-1.565 6.393 6.785c.392 8.351-6.655 6.785-7.698 6.655zM211.379 328.687l.26-5.741-6.393 1.435.652-17.485h-6.785l.653 24.661 11.613-2.87zM181.496 331.949c12.004-.391 11.221-12.004 10.96-15.005-.261-3.001-1.696-10.7-10.177-10.7-8.221.131-11.091 6.263-11.222 13.962-.522 12.265 10.439 11.743 10.439 11.743zm2.087-19.572c1.044.261 3.915 0 3.915 6.785s-5.219 6.654-5.219 6.654-6.003 1.566-6.394-6.785c-.522-8.35 6.524-6.915 7.698-6.654zM200.545 286.667l-8.611 13.048-8.743-13.048 8.612-13.048 8.742 13.048zM47.358 57.154l-8.612 13.048-8.742-13.048 8.612-13.049 8.742 13.049z" fill="#F37880"/></svg>
